X: 11160
T: Duncan Davidson's
R: strathspey
M: 4/4
K: Dmajor
DF AB A<F d2|DF AB A<F E2|DF AB A<F de|1 fd eg fd AF:|2 fd eg fd de||
f2 f2 gf ed|cA AB cd eg|f2 fa gf ed|ce ag fd de|
f2 f2 gf ed|cA AB cd eg|(3fed (3edc dB AF|GB AF GF EF||

